X:1
T:Randolph, 98.89
T:Randolph, 98.89
T:Ralph Vaughan Williams, 1906
T:Public Domain Courtesy of the Cyber Hymnal™
C:Ralph Vaughan Williams, 1906
Z:Public Domain
Z:Courtesy of the Cyber Hymnal™
%%score ( 1 2 ) ( 3 4 )
L:1/8
Q:1/4=140
M:none
K:D
V:1 treble 
V:2 treble 
V:3 bass 
V:4 bass 
V:1
 [DF]4 A4 B2 A2 G2 F2 x4 | E6 z2 D8 | [DF]4 [E^G]4 A6 z2 x2 | [FB]4 c2 d2 [Ed]4 [Ec]4 x2 | %4
 [Dd]6 [Dc]2 [DB]4 [DA]4 | [EG]4 A2 B2 [EA]4 [CG]4 | F4 [=CA]4 B2 A2 G2 F2 x4 | E6 z2 [A,D]8 |] %8
V:2
 x8 D8 x4 | D4 (C4 D2) x6 | x8 E4 (C4 A2) | x4 E4 x10 | x16 | x4 E4 x8 | D8 [B,D]8 x4 | %7
 D4 (C4 D2) x6 |] %8
V:3
 A,8 B,8 E,4 | E,4 G,4 [D,F,]8 | [D,A,]4 [D,B,]4 [C,A,]4 [F,A,]4 x2 | [D,A,]4 [E,^G,]4 A,4 z2 x4 | %4
 [F,A,]6 [F,A,]2 [G,B,]4 [F,B,]4 | [E,B,]4 [D,G,]4 [C,A,]4 [A,,A,]4 | A,8 z4 x8 | %7
 A,4 G,4 [D,F,]8 |] %8
V:4
 D,4 F,4 G,4 x8 | A,,8 x8 | x18 | x12 (A,4 =G,2) | x16 | x16 | D,4 F,4 (G,8 E,4) | A,,8 x8 |] %8

